dist/assets/img/main/main-block/icons/3.svg

<svg width="74" height="78" viewBox="0 0 74 78" fill="none" xmlns="http://www.w3.org/2000/svg">
<path d="M22.3146 13.5635C21.6898 13.5635 21.1831 14.1084 21.1831 14.7808C21.1831 16.2575 20.0664 17.459 18.6939 17.459C17.3214 17.459 16.2047 16.2575 16.2047 14.7808C16.2047 13.3041 17.3214 12.1027 18.6939 12.1027C19.3187 12.1027 19.8254 11.5577 19.8254 10.8853C19.8254 10.2129 19.3189 9.66797 18.6939 9.66797C16.0736 9.66797 13.9419 11.9616 13.9419 14.7807C13.9419 17.5997 16.0737 19.8934 18.6939 19.8934C21.3141 19.8934 23.4459 17.5997 23.4459 14.7807C23.4461 14.1084 22.9394 13.5635 22.3146 13.5635Z" fill="white"/>
<path d="M22.3146 27.8465C21.6898 27.8465 21.1831 28.3915 21.1831 29.0639C21.1831 30.5406 20.0664 31.742 18.6939 31.742C17.3214 31.742 16.2047 30.5406 16.2047 29.0639C16.2047 27.5872 17.3214 26.3858 18.6939 26.3858C19.3187 26.3858 19.8254 25.8408 19.8254 25.1684C19.8254 24.496 19.3189 23.951 18.6939 23.951C16.0736 23.951 13.9419 26.2447 13.9419 29.0638C13.9419 31.8828 16.0737 34.1765 18.6939 34.1765C21.3141 34.1765 23.4459 31.8828 23.4459 29.0638C23.4461 28.3917 22.9394 27.8465 22.3146 27.8465Z" fill="white"/>
<path d="M40.6865 31.3079H32.2384C31.6136 31.3079 31.1069 31.8529 31.1069 32.5253C31.1069 33.1976 31.6135 33.7426 32.2384 33.7426H40.6865C41.3113 33.7426 41.818 33.1976 41.818 32.5253C41.818 31.8529 41.3115 31.3079 40.6865 31.3079Z" fill="white"/>
<path d="M40.6865 26.1139H32.2384C31.6136 26.1139 31.1069 26.6589 31.1069 27.3313C31.1069 28.0037 31.6135 28.5486 32.2384 28.5486H40.6865C41.3113 28.5486 41.818 28.0037 41.818 27.3313C41.818 26.6589 41.3115 26.1139 40.6865 26.1139Z" fill="white"/>
<path d="M38.2728 45.5909H32.2384C31.6136 45.5909 31.1069 46.1359 31.1069 46.8083C31.1069 47.4807 31.6135 48.0256 32.2384 48.0256H38.2728C38.8976 48.0256 39.4043 47.4807 39.4043 46.8083C39.4043 46.1359 38.8976 45.5909 38.2728 45.5909Z" fill="white"/>
<path d="M40.6865 40.3972H32.2384C31.6136 40.3972 31.1069 40.9421 31.1069 41.6145C31.1069 42.2869 31.6135 42.8318 32.2384 42.8318H40.6865C41.3113 42.8318 41.818 42.2869 41.818 41.6145C41.818 40.9421 41.3115 40.3972 40.6865 40.3972Z" fill="white"/>
<path d="M51.5483 17.0247H32.2384C31.6136 17.0247 31.1069 17.5696 31.1069 18.242C31.1069 18.9144 31.6135 19.4594 32.2384 19.4594H51.5482C52.173 19.4594 52.6797 18.9144 52.6797 18.242C52.6797 17.5696 52.1732 17.0247 51.5483 17.0247Z" fill="white"/>
<path d="M46.7208 11.8307H32.2384C31.6136 11.8307 31.1069 12.3757 31.1069 13.0481C31.1069 13.7205 31.6135 14.2655 32.2384 14.2655H46.7208C47.3456 14.2655 47.8523 13.7205 47.8523 13.0481C47.8523 12.3757 47.3458 11.8307 46.7208 11.8307Z" fill="white"/>
<path d="M22.3146 42.1297C21.6898 42.1297 21.1831 42.6747 21.1831 43.3471C21.1831 44.8238 20.0664 46.0252 18.6939 46.0252C17.3214 46.0252 16.2047 44.8238 16.2047 43.3471C16.2047 41.8704 17.3214 40.6689 18.6939 40.6689C19.3187 40.6689 19.8254 40.1239 19.8254 39.4516C19.8254 38.7792 19.3189 38.2342 18.6939 38.2342C16.0736 38.2342 13.9419 40.5279 13.9419 43.3469C13.9419 46.166 16.0737 48.4597 18.6939 48.4597C21.3141 48.4597 23.4459 46.166 23.4459 43.3469C23.4461 42.6747 22.9394 42.1297 22.3146 42.1297Z" fill="white"/>
<path d="M58.487 0H4.65125C2.08667 0 0 1.71101 0 3.81425V58.3499C0 60.4531 2.08648 62.1641 4.65125 62.1641H31.5692C32.389 62.1641 33.0537 61.6191 33.0537 60.9468C33.0537 60.2745 32.3891 59.7294 31.5692 59.7294H4.65125C3.72356 59.7294 2.96881 59.1105 2.96881 58.3497V3.81425C2.96881 3.0535 3.72356 2.43457 4.65125 2.43457H58.487C59.4147 2.43457 60.1694 3.0535 60.1694 3.81425V44.067C60.1694 44.7392 60.834 45.2843 61.6539 45.2843C62.4737 45.2843 63.1384 44.7393 63.1384 44.067V3.81425C63.1382 1.71101 61.0518 0 58.487 0Z" fill="white"/>
<path d="M70.2756 49.3646C69.224 49.2518 68.1729 49.5725 67.3411 50.252C66.6785 49.0558 65.5485 48.2071 64.2412 48.0662C63.1893 47.9535 62.1384 48.2742 61.3067 48.9536C60.6441 47.7573 59.5142 46.9086 58.2068 46.7677C57.4038 46.6815 56.6019 46.8479 55.8972 47.2338V31.7314C55.8972 30.4727 55.3995 29.2661 54.5314 28.4211C53.6641 27.5768 52.4954 27.1647 51.3247 27.2907C49.236 27.5158 47.6 29.5476 47.6 31.9166V47.4582L44.274 51.0366C42.5066 52.9382 41.7931 55.6362 42.3657 58.2541L44.8908 69.8001C45.9139 74.4786 49.7483 77.7461 54.2155 77.7461H64.4206C69.7027 77.7461 74.0001 73.1226 74.0001 67.4395V53.9908C74.0003 51.6215 72.3642 49.5897 70.2756 49.3646ZM71.7373 67.4392C71.7373 71.7797 68.4551 75.3111 64.4207 75.3111H54.2157C50.8037 75.3111 47.8749 72.8155 47.0935 69.242L44.5684 57.696C44.1766 55.905 44.6648 54.0588 45.8741 52.7578L47.6 50.9009V55.1037C47.6 55.7759 48.1065 56.3211 48.7315 56.3211C49.3564 56.3211 49.8629 55.7761 49.8629 55.1037V31.9165C49.8629 30.7829 50.604 29.8151 51.5504 29.7133C52.0939 29.6545 52.6137 29.8371 53.0134 30.2264C53.4081 30.6107 53.6345 31.1594 53.6345 31.7315V53.1562C53.6345 53.8285 54.141 54.3736 54.766 54.3736C55.3909 54.3736 55.8975 53.8286 55.8975 53.1562V51.2085C55.8975 50.6363 56.1237 50.0877 56.5186 49.7034C56.9186 49.3141 57.4381 49.1314 57.9816 49.1903C58.9278 49.2922 59.669 50.2601 59.669 51.3936V54.4544C59.669 55.1266 60.1755 55.6718 60.8005 55.6718C61.4253 55.6718 61.932 55.1268 61.932 54.4544V52.5066C61.932 51.9345 62.1582 51.3859 62.5531 51.0015C62.9531 50.6122 63.4727 50.4297 64.0161 50.4884C64.9623 50.5903 65.7035 51.5582 65.7035 52.6917V55.7527C65.7035 56.4249 66.21 56.97 66.835 56.97C67.4598 56.97 67.9665 56.4251 67.9665 55.7527V53.8049C67.9665 53.2328 68.1927 52.6842 68.5876 52.2998C68.9876 51.9106 69.5068 51.7278 70.0506 51.7869C70.9968 51.8886 71.738 52.8565 71.738 53.99V67.4392H71.7373Z" fill="white"/>
</svg>

<svg width="74" height="78" fill="none" xmlns="http://www.w3.org/2000/svg"><path d="M22.315 13.563c-.625 0-1.132.545-1.132 1.218 0 1.476-1.117 2.678-2.49 2.678-1.372 0-2.488-1.201-2.488-2.678 0-1.477 1.116-2.678 2.489-2.678.625 0 1.131-.545 1.131-1.218 0-.672-.506-1.217-1.131-1.217-2.62 0-4.752 2.294-4.752 5.113 0 2.819 2.132 5.112 4.752 5.112 2.62 0 4.752-2.293 4.752-5.112 0-.673-.507-1.218-1.131-1.218zm0 14.283c-.625 0-1.132.546-1.132 1.218 0 1.477-1.117 2.678-2.49 2.678-1.372 0-2.488-1.201-2.488-2.678 0-1.477 1.116-2.678 2.489-2.678.625 0 1.131-.545 1.131-1.218 0-.672-.506-1.217-1.131-1.217-2.62 0-4.752 2.294-4.752 5.113 0 2.819 2.132 5.112 4.752 5.112 2.62 0 4.752-2.293 4.752-5.112 0-.672-.507-1.218-1.131-1.218zm18.372 3.462h-8.449c-.624 0-1.131.545-1.131 1.217 0 .673.506 1.218 1.131 1.218h8.449c.624 0 1.131-.545 1.131-1.218 0-.672-.506-1.217-1.131-1.217zm0-5.194h-8.449c-.624 0-1.131.545-1.131 1.217 0 .673.506 1.218 1.131 1.218h8.449c.624 0 1.131-.545 1.131-1.218 0-.672-.506-1.217-1.131-1.217zM38.273 45.59h-6.035c-.624 0-1.131.546-1.131 1.218 0 .673.506 1.218 1.131 1.218h6.035c.625 0 1.131-.545 1.131-1.218 0-.672-.506-1.217-1.131-1.217zm2.414-5.193h-8.449c-.624 0-1.131.545-1.131 1.218 0 .672.506 1.217 1.131 1.217h8.449c.624 0 1.131-.545 1.131-1.218 0-.672-.506-1.217-1.131-1.217zm10.861-23.372h-19.31c-.624 0-1.131.545-1.131 1.217s.506 1.217 1.131 1.217h19.31c.625 0 1.132-.545 1.132-1.217s-.507-1.217-1.132-1.217zM46.72 11.83H32.239c-.624 0-1.131.546-1.131 1.218 0 .672.506 1.217 1.131 1.217h14.483c.625 0 1.131-.545 1.131-1.217s-.506-1.217-1.131-1.217zm-24.405 30.3c-.625 0-1.132.545-1.132 1.217 0 1.477-1.117 2.678-2.49 2.678-1.372 0-2.488-1.201-2.488-2.678 0-1.477 1.116-2.678 2.489-2.678.625 0 1.131-.545 1.131-1.217 0-.673-.506-1.218-1.131-1.218-2.62 0-4.752 2.294-4.752 5.113 0 2.819 2.132 5.113 4.752 5.113 2.62 0 4.752-2.294 4.752-5.113 0-.672-.507-1.217-1.131-1.217z" fill="#fff"/><path d="M58.487 0H4.651C2.087 0 0 1.711 0 3.814V58.35c0 2.103 2.086 3.814 4.651 3.814H31.57c.82 0 1.485-.545 1.485-1.217s-.665-1.218-1.485-1.218H4.651c-.927 0-1.682-.618-1.682-1.38V3.815c0-.76.755-1.38 1.682-1.38h53.836c.928 0 1.682.62 1.682 1.38v40.253c0 .672.665 1.217 1.485 1.217.82 0 1.484-.545 1.484-1.217V3.814C63.138 1.711 61.052 0 58.487 0z" fill="#fff"/><path d="M70.276 49.365a3.965 3.965 0 00-2.935.887c-.662-1.196-1.792-2.045-3.1-2.186a3.966 3.966 0 00-2.934.888c-.663-1.197-1.793-2.045-3.1-2.186a3.928 3.928 0 00-2.31.466V31.73c0-1.258-.497-2.465-1.366-3.31a3.983 3.983 0 00-3.206-1.13c-2.089.225-3.725 2.257-3.725 4.626v15.541l-3.326 3.579c-1.767 1.901-2.48 4.6-1.908 7.217L44.89 69.8c1.023 4.679 4.857 7.946 9.325 7.946H64.42c5.282 0 9.58-4.623 9.58-10.306V53.99c0-2.369-1.637-4.4-3.725-4.625zm1.461 18.074c0 4.34-3.282 7.872-7.316 7.872H54.216c-3.412 0-6.341-2.496-7.123-6.069l-2.525-11.546c-.391-1.791.097-3.637 1.306-4.938L47.6 50.9v4.203c0 .672.506 1.217 1.131 1.217s1.132-.545 1.132-1.217V31.916c0-1.133.741-2.1 1.687-2.203a1.791 1.791 0 011.463.513c.395.385.622.933.622 1.506v21.424c0 .672.506 1.218 1.131 1.218s1.132-.545 1.132-1.218V51.21c0-.573.226-1.121.62-1.506.4-.389.92-.572 1.464-.513.946.102 1.687 1.07 1.687 2.204v3.06c0 .673.507 1.218 1.132 1.218.624 0 1.131-.545 1.131-1.218v-1.947c0-.572.226-1.121.621-1.505.4-.39.92-.572 1.463-.514.946.102 1.688 1.07 1.688 2.204v3.06c0 .673.506 1.218 1.131 1.218s1.132-.545 1.132-1.217v-1.948c0-.572.226-1.12.62-1.505.4-.39.92-.572 1.464-.513.946.102 1.687 1.07 1.687 2.203v13.45z" fill="#fff"/></svg>
